X:2
T:Shona's Jig
C:Alistair E. Reese
L:1/8
R:Jig
M:6/8
K:D
Q:3/8=118
[|: {gAGAG}A2e {gef}e2d | e{g}e{A}e {gf}g2e | age {gf}g2e | {g}deg {a}edB | 
{gAGAG}A2e {gef}e2d | e{g}e{A}e {gf}g2e | age {g}deg | {a}edB {gAGAG}A2e :|]
[|: {gAGAG}A2a {g}a2e | g{a}eg {ag}a2e | g{a}ea ege | {g}deg {a}edB |
[1 {gAGAG}A2a {g}a2e | g{a}eg {ag}a2e | age {g}deg | {a}edB {gAGAG}A2e :|]
[2 {gAGAG}A2e {gef}e2d | e{g}e{A}e {gf}g2e | age {g}deg | {a}edB {gAGAG}A3 |]

